src/icon/brand/forex/icon_forex_l_black.svg

<svg width="30px" height="30px" viewBox="0 0 30 30" version="1.1" xmlns="http://www.w3.org/2000/svg"><g transform="translate(-108.000000, -1.000000) translate(108.000000, 1.000000)" fill="#0B1F35" stroke="none" stroke-width="1" fill-rule="evenodd"><polygon points="8.10490024 6.92307692 8.06057279 6.92307692 4.61538462 18.4615385 11.5384615 18.4615385"/><path d="M13.4335946,24.1585 L2.10251351,24.1585 C1.91602703,24.686 8.10810811e-05,30.0001667 8.10810811e-05,30.0001667 L15.531973,30.0001667 C15.531973,30.0001667 13.6217027,24.686 13.4335946,24.1585"/><path d="M25.6155405,11.32975 L20.1401351,11.32975 C20.1385135,9.29225 20.1368919,7.32891667 20.1336486,5.62641667 L27.2704054,5.62641667 C27.542027,5.62641667 27.837973,5.39975 27.932027,5.12141667 L29.487973,0.52725 C29.5836486,0.248916667 29.4409459,0.0230833333 29.1693243,0.0230833333 L7.76797297,0.0230833333 L7.76797297,0.0780833333 L7.77283784,0.0780833333 C10.7193243,0.0780833333 11.6777027,2.27891667 12.4228378,4.41391667 C12.807973,5.51725 19.8174324,26.69475 20.0971622,27.5030833 C20.1312162,27.5989167 20.1417568,22.6530833 20.1425676,16.9330833 L23.7158108,16.9330833 C23.9874324,16.9330833 24.2833784,16.7064167 24.3790541,16.42725 L25.935,11.8339167 C26.0298649,11.5555833 25.8855405,11.32975 25.6155405,11.32975"/></g></svg>

<svg width="30" height="30" viewBox="0 0 30 30" xmlns="http://www.w3.org/2000/svg"><g fill="#0B1F35" fill-rule="evenodd"><path d="M8.105 6.923H8.06L4.615 18.462h6.923zM13.434 24.159H2.103C1.916 24.686 0 30 0 30h15.532s-1.91-5.314-2.098-5.841M25.616 11.33H20.14c-.001-2.038-.003-4.001-.006-5.704h7.136c.272 0 .568-.226.662-.505L29.488.527c.096-.278-.047-.504-.319-.504H7.768v.055h.005c2.946 0 3.905 2.2 4.65 4.336.385 1.103 7.394 22.28 7.674 23.09.034.095.045-4.85.046-10.57h3.573c.271 0 .567-.228.663-.507l1.556-4.593c.095-.278-.05-.504-.32-.504"/></g></svg>
